z_dist/img/icons/crypto/cardano-ADA.svg

<svg width="64" height="64" viewBox="0 0 64 64" fill="none" xmlns="http://www.w3.org/2000/svg">
<rect width="64" height="64" rx="4" fill="white"/>
<g clip-path="url(#clip0_233_1535)">
<path d="M21.1583 31.8359C21.0559 33.6151 22.4255 35.1383 24.2047 35.2407C24.2687 35.2407 24.3327 35.2407 24.3967 35.2407C26.1888 35.2407 27.6352 33.7943 27.6224 32.0023C27.6224 30.2103 26.176 28.7639 24.3839 28.7767C22.6687 28.7767 21.2479 30.1207 21.1583 31.8359Z" fill="#0033AD"/>
<path d="M9.10078 31.004C8.52478 30.9656 8.02558 31.4136 7.99997 31.9896C7.97437 32.5656 8.40958 33.0648 8.98558 33.0904C9.56158 33.1288 10.048 32.6808 10.0864 32.1048C10.1248 31.5288 9.67678 31.0424 9.10078 31.004Z" fill="#0033AD"/>
<path d="M20.9535 13.0713C21.4655 12.8153 21.6703 12.1753 21.4143 11.6633C21.1583 11.1513 20.5183 10.9465 20.0063 11.2025C19.4943 11.4585 19.2895 12.0857 19.5455 12.5977C19.8015 13.1225 20.4287 13.3401 20.9535 13.0713C20.9535 13.0713 20.9407 13.0713 20.9535 13.0713Z" fill="#0033AD"/>
<path d="M24.2304 18.7927C25.024 18.3959 25.344 17.4231 24.9472 16.6295C24.5504 15.8359 23.5776 15.5159 22.784 15.9127C21.9904 16.3095 21.6704 17.2823 22.0672 18.0759C22.464 18.8695 23.4368 19.1895 24.2304 18.7927Z" fill="#0033AD"/>
<path d="M13.1968 22.7225C13.8112 23.1193 14.6304 22.9529 15.04 22.3385C15.4368 21.7241 15.2704 20.9049 14.656 20.4953C14.0416 20.0985 13.2224 20.2649 12.8128 20.8793C12.4032 21.4937 12.5824 22.3257 13.1968 22.7225Z" fill="#0033AD"/>
<path d="M15.1552 30.428C14.2592 30.3768 13.504 31.0552 13.4528 31.9512C13.4016 32.8472 14.08 33.6024 14.976 33.6536C15.872 33.7048 16.6272 33.0264 16.6784 32.1304C16.7296 31.2472 16.0512 30.4792 15.1552 30.428Z" fill="#0033AD"/>
<path d="M13.376 41.2695C12.7232 41.6023 12.4544 42.3959 12.7872 43.0615C13.12 43.7143 13.9136 43.9831 14.5792 43.6503C15.232 43.3175 15.5008 42.5239 15.168 41.8583C14.8352 41.2055 14.0288 40.9367 13.376 41.2695Z" fill="#0033AD"/>
<path d="M19.6479 27.0872C20.5311 27.6632 21.7087 27.4201 22.2719 26.5369C22.8479 25.6537 22.6047 24.4761 21.7215 23.9129C20.8383 23.3369 19.6607 23.5801 19.0975 24.4633C18.5215 25.3337 18.7647 26.5112 19.6479 27.0872Z" fill="#0033AD"/>
<path d="M39.5519 18.6648C40.2943 19.1512 41.3055 18.9464 41.7919 18.204C42.2783 17.4616 42.0735 16.4504 41.3311 15.964C40.5887 15.4776 39.5775 15.6824 39.0911 16.4248C38.5919 17.18 38.7967 18.1784 39.5519 18.6648Z" fill="#0033AD"/>
<path d="M42.8543 12.9688C43.3407 13.2888 43.9807 13.148 44.3007 12.6616C44.6207 12.1752 44.4799 11.5352 43.9935 11.2152C43.5071 10.8952 42.8671 11.036 42.5471 11.5096C42.2399 11.996 42.3807 12.6488 42.8543 12.9688Z" fill="#0033AD"/>
<path d="M39.7952 28.7512C38.016 28.6488 36.48 30.0184 36.3904 31.7976C36.288 33.5769 37.6576 35.1129 39.4368 35.2025C39.5008 35.2025 39.5648 35.2025 39.616 35.2025C41.3952 35.2025 42.8416 33.7561 42.8416 31.964C42.8544 30.2616 41.5104 28.8408 39.7952 28.7512Z" fill="#0033AD"/>
<path d="M25.2928 26.8568C25.8432 27.9448 26.9568 28.636 28.1856 28.636C29.9648 28.636 31.4112 27.1896 31.4112 25.3976C31.4112 24.8984 31.296 24.3992 31.0656 23.9384C30.2592 22.3384 28.3136 21.6984 26.7264 22.5048C25.1264 23.324 24.4864 25.2696 25.2928 26.8568Z" fill="#0033AD"/>
<path d="M50.624 22.7225C51.2768 22.3897 51.5328 21.5833 51.2 20.9305C50.8672 20.2777 50.0608 20.0217 49.408 20.3545C48.7552 20.6873 48.4992 21.4809 48.8192 22.1337C49.1648 22.7865 49.9584 23.0553 50.624 22.7225Z" fill="#0033AD"/>
<path d="M42.432 23.7464C41.4976 24.22 41.1136 25.3592 41.5872 26.2936C42.0608 27.228 43.2 27.612 44.1344 27.1384C45.0688 26.6648 45.4528 25.5256 44.9792 24.5912C44.5056 23.6568 43.3664 23.2856 42.432 23.7464Z" fill="#0033AD"/>
<path d="M31.872 12.4824C32.6016 12.5208 33.2288 11.9576 33.28 11.228C33.3312 10.4984 32.7552 9.87121 32.0256 9.82001C31.296 9.78161 30.6688 10.332 30.6176 11.0616C30.5792 11.804 31.1424 12.4312 31.872 12.4824Z" fill="#0033AD"/>
<path d="M31.8592 20.8407C32.9088 20.9047 33.8047 20.0983 33.8559 19.0487C33.9199 17.9991 33.1136 17.1031 32.064 17.0519C31.0144 16.9879 30.1184 17.7943 30.0672 18.8439C30.016 19.8935 30.8096 20.7895 31.8592 20.8407Z" fill="#0033AD"/>
<path d="M21.568 40.2455C22.5024 39.7719 22.8864 38.6327 22.4128 37.6983C21.9392 36.7639 20.8 36.3799 19.8656 36.8535C18.9312 37.3271 18.5472 38.4663 19.0208 39.4007C19.4944 40.3351 20.6336 40.7191 21.568 40.2455Z" fill="#0033AD"/>
<path d="M33.0879 23.6184C32.1151 25.116 32.5247 27.1128 34.0223 28.0856C35.5199 29.0583 37.5167 28.6488 38.4895 27.1512C39.4623 25.6536 39.0527 23.6568 37.5551 22.684C37.0303 22.3384 36.4159 22.1592 35.7887 22.1592C34.7007 22.1592 33.6895 22.7096 33.0879 23.6184Z" fill="#0033AD"/>
<path d="M38.7072 37.1352C37.9008 35.5352 35.9552 34.8952 34.368 35.7016C32.768 36.508 32.128 38.4536 32.9344 40.0408C33.7408 41.6408 35.6864 42.2808 37.2736 41.4744C38.8608 40.6808 39.5136 38.7608 38.72 37.1608C38.72 37.148 38.72 37.148 38.7072 37.1352Z" fill="#0033AD"/>
<path d="M44.352 36.9048C43.4688 36.3288 42.2912 36.572 41.728 37.4552C41.152 38.3384 41.3952 39.516 42.2784 40.0792C43.1616 40.6552 44.3392 40.412 44.9024 39.5288C45.4784 38.6584 45.2352 37.4808 44.352 36.9048Z" fill="#0033AD"/>
<path d="M50.5472 32.0535C50.5984 31.1575 49.92 30.4023 49.024 30.3511C48.128 30.2999 47.3728 30.9783 47.3216 31.8743C47.2704 32.7703 47.9488 33.5255 48.8448 33.5767C49.728 33.6279 50.496 32.9367 50.5472 32.0535Z" fill="#0033AD"/>
<path d="M55.0143 30.9017C54.4383 30.8633 53.9391 31.3113 53.9135 31.8873C53.8879 32.4633 54.3231 32.9625 54.8991 32.9881C55.4751 33.0265 55.9615 32.5785 55.9999 32.0025C56.0255 31.4265 55.5903 30.9401 55.0143 30.9017Z" fill="#0033AD"/>
<path d="M50.8032 41.2697C50.1888 40.8729 49.3696 41.0393 48.96 41.6537C48.5632 42.2681 48.7296 43.0873 49.344 43.4969C49.9584 43.8936 50.7776 43.7272 51.1872 43.1129C51.5968 42.4985 51.4176 41.6665 50.8032 41.2697Z" fill="#0033AD"/>
<path d="M21.1328 51.0233C20.6464 50.7033 20.0064 50.8441 19.6864 51.3177C19.3664 51.8041 19.5072 52.4441 19.9808 52.7641C20.4672 53.0841 21.1072 52.9433 21.4272 52.4697C21.76 51.9961 21.6192 51.3433 21.1328 51.0233Z" fill="#0033AD"/>
<path d="M43.0463 50.9207C42.5343 51.1767 42.3296 51.8167 42.5856 52.3287C42.8415 52.8407 43.4815 53.0455 43.9935 52.7895C44.5055 52.5335 44.7103 51.9063 44.4543 51.3943C44.1983 50.8695 43.5711 50.6519 43.0463 50.9207C43.0591 50.9207 43.0463 50.9207 43.0463 50.9207Z" fill="#0033AD"/>
<path d="M30.9119 40.3737C31.8847 38.8761 31.4751 36.8793 29.9775 35.8937C28.4799 34.9209 26.4831 35.3305 25.4975 36.8281C24.5119 38.3257 24.9343 40.3225 26.4319 41.3081C26.9567 41.6537 27.5711 41.8329 28.1983 41.8329C29.2991 41.8457 30.3103 41.2953 30.9119 40.3737Z" fill="#0033AD"/>
<path d="M24.448 45.3273C23.7056 44.8409 22.6944 45.0457 22.208 45.7881C21.7216 46.5305 21.9264 47.5417 22.6688 48.0281C23.4112 48.5145 24.4224 48.3097 24.9088 47.5673C25.408 46.8249 25.2032 45.8137 24.448 45.3273Z" fill="#0033AD"/>
<path d="M31.9872 51.5097C31.2576 51.4713 30.6304 52.0345 30.5792 52.7641C30.528 53.4937 31.104 54.1209 31.8336 54.1721C32.5632 54.2105 33.1904 53.6601 33.2416 52.9305C33.28 52.1881 32.7168 51.5609 31.9872 51.5097Z" fill="#0033AD"/>
<path d="M32 43.1513C30.9504 43.0873 30.0544 43.8937 30.0032 44.9433C29.9392 45.9929 30.7456 46.8889 31.7952 46.9401C32.8448 46.9913 33.7408 46.1977 33.792 45.1481C33.856 44.1113 33.0496 43.2025 32 43.1513Z" fill="#0033AD"/>
<path d="M39.7696 45.1991C38.976 45.6087 38.656 46.5815 39.0656 47.3751C39.4752 48.1687 40.448 48.4887 41.2416 48.0791C42.0351 47.6823 42.3551 46.7095 41.9583 45.9159C41.5487 45.1223 40.576 44.7895 39.7696 45.1991Z" fill="#0033AD"/>
</g>
<defs>
<clipPath id="clip0_233_1535">
<rect width="48" height="44.352" fill="white" transform="translate(8 9.82007)"/>
</clipPath>
</defs>
</svg>

<svg width="64" height="64" fill="none" xmlns="http://www.w3.org/2000/svg"><rect width="64" height="64" rx="4" fill="#fff"/><g clip-path="url(#clip0_233_1535)" fill="#0033AD"><path d="M21.158 31.836a3.233 3.233 0 003.047 3.405h.192a3.215 3.215 0 003.225-3.239 3.215 3.215 0 00-3.238-3.225 3.23 3.23 0 00-3.226 3.059zM9.1 31.004a1.037 1.037 0 00-1.1.986c-.026.576.41 1.075.986 1.1a1.045 1.045 0 001.1-.985 1.045 1.045 0 00-.985-1.101zm11.853-17.933c.512-.256.717-.896.461-1.408a1.056 1.056 0 00-1.408-.46 1.04 1.04 0 00-.46 1.395c.256.524.883.742 1.407.473 0 0-.012 0 0 0zm3.277 5.722a1.615 1.615 0 00.717-2.163 1.615 1.615 0 00-2.163-.717 1.615 1.615 0 00-.717 2.163 1.615 1.615 0 002.163.717zm-11.033 3.93a1.34 1.34 0 001.843-.384 1.339 1.339 0 00-.384-1.844 1.339 1.339 0 00-1.843.384c-.41.615-.23 1.447.384 1.843zm1.958 7.705a1.608 1.608 0 00-1.702 1.523 1.608 1.608 0 001.523 1.703 1.616 1.616 0 00.18-3.226zM13.376 41.27a1.335 1.335 0 00-.589 1.791 1.335 1.335 0 001.792.59 1.335 1.335 0 00.589-1.793 1.339 1.339 0 00-1.792-.588zm6.272-14.183c.883.576 2.06.333 2.624-.55a1.884 1.884 0 00-.55-2.624 1.884 1.884 0 00-2.625.55 1.889 1.889 0 00.55 2.624zm19.904-8.422a1.624 1.624 0 002.24-.461 1.624 1.624 0 00-.46-2.24 1.624 1.624 0 00-2.24.46 1.6 1.6 0 00.46 2.24zm3.302-5.696a1.04 1.04 0 001.447-.307 1.04 1.04 0 00-.308-1.447 1.048 1.048 0 00-1.446.295 1.078 1.078 0 00.307 1.459zm-3.059 15.782a3.225 3.225 0 00-3.405 3.047 3.226 3.226 0 003.047 3.405h.179a3.231 3.231 0 003.226-3.239c.012-1.702-1.332-3.123-3.047-3.213zm-14.502-1.894a3.231 3.231 0 006.118-1.46c0-.499-.115-.998-.345-1.459a3.226 3.226 0 00-4.34-1.433c-1.6.819-2.24 2.765-1.433 4.352zm25.331-4.134c.653-.333.909-1.14.576-1.793a1.334 1.334 0 00-2.38 1.204 1.353 1.353 0 001.804.588zm-8.192 1.023a1.898 1.898 0 102.547.845 1.91 1.91 0 00-2.547-.845zm-10.56-11.264a1.349 1.349 0 001.408-1.254c.051-.73-.525-1.357-1.254-1.408a1.338 1.338 0 00-1.408 1.242 1.353 1.353 0 001.254 1.42zm-.012 8.358a1.885 1.885 0 001.996-1.791 1.885 1.885 0 00-1.792-1.997 1.885 1.885 0 00-1.997 1.792 1.893 1.893 0 001.792 1.997zM21.568 40.245a1.898 1.898 0 10-1.704-3.392 1.898 1.898 0 001.704 3.392zm11.52-16.627a3.223 3.223 0 00.934 4.468 3.223 3.223 0 004.468-.935 3.223 3.223 0 00-2.701-4.992c-1.088 0-2.1.55-2.701 1.46zm5.619 13.517a3.226 3.226 0 00-4.339-1.433 3.226 3.226 0 00-1.434 4.339 3.226 3.226 0 004.34 1.433 3.216 3.216 0 001.446-4.313c0-.013 0-.013-.013-.026zm5.645-.23a1.884 1.884 0 00-2.624.55 1.884 1.884 0 00.55 2.624 1.884 1.884 0 002.624-.55 1.889 1.889 0 00-.55-2.624zm6.195-4.852a1.608 1.608 0 00-1.523-1.702 1.608 1.608 0 00-1.702 1.523 1.608 1.608 0 001.523 1.703 1.625 1.625 0 001.702-1.523zm4.467-1.151a1.037 1.037 0 00-1.1.985 1.044 1.044 0 102.086.115 1.053 1.053 0 00-.986-1.1zM50.803 41.27a1.339 1.339 0 00-1.843.384 1.339 1.339 0 00.384 1.843c.614.397 1.434.23 1.843-.384.41-.614.23-1.447-.384-1.843zm-29.67 9.753a1.048 1.048 0 00-1.447.295 1.047 1.047 0 00.295 1.446c.486.32 1.126.18 1.446-.294.333-.474.192-1.127-.294-1.447zm21.913-.103a1.055 1.055 0 00-.46 1.409c.256.512.895.716 1.407.46a1.04 1.04 0 00.461-1.395 1.035 1.035 0 00-1.408-.473c.013 0 0 0 0 0zM30.912 40.374a3.24 3.24 0 00-.934-4.48 3.24 3.24 0 00-4.48.934 3.229 3.229 0 002.7 5.005 3.186 3.186 0 002.714-1.46zm-6.464 4.953a1.624 1.624 0 00-2.24.461 1.624 1.624 0 00.46 2.24 1.624 1.624 0 002.24-.46 1.6 1.6 0 00-.46-2.24zm7.539 6.183a1.349 1.349 0 00-1.408 1.254c-.051.73.525 1.357 1.255 1.408a1.338 1.338 0 001.408-1.241 1.353 1.353 0 00-1.255-1.421zM32 43.151a1.885 1.885 0 00-1.997 1.792 1.885 1.885 0 001.792 1.997 1.893 1.893 0 001.997-1.792A1.892 1.892 0 0032 43.151zm7.77 2.049a1.617 1.617 0 001.472 2.88 1.615 1.615 0 00.716-2.164 1.633 1.633 0 00-2.188-.717z"/></g><defs><clipPath id="clip0_233_1535"><path fill="#fff" transform="translate(8 9.82)" d="M0 0h48v44.352H0z"/></clipPath></defs></svg>
